X: 1
T: Willafjord
R: reel
M: 4/4
L: 1/8
K: Dmaj
B2| A2F A2D FA | B2G B2D GB | A2F A2D FA |EFGA GFED |
A2F A2D FA | B2G B2D GB |ABcd efge | f2d2 d2 :|
de | f2d f2f df | geaf gfed |f2d f2A df | e2ce Aece|
f2d f2f df | gdaf gfed | ABcd efge | f2d2 d2 :|


Tune 292	Setting 23016

